X: 22
T:Golden Slippers
M:4/4
L:1/8
C:
S:AB form
R:Key of D
K:D
DE|F2F2FEDE|F2F2F2DE|F2F2G2F2|F2E2E2CD|!E2E2EDCD|E2E2E2CD|E2G2F2E2|E2D2D
2DE
|F2F2FEDE|F2F2F2DE|F2F2G2F2|F2E2E2CD|E2E2EDCD|E2E2E2CD|E2G2F2E2|E2D2D4
||!A,6D2|F2E2D2C2|B,6E2|G2F2E2D2|C2C2C2D2|E2E2E2C2|!D2C2D2E2|F2FFF2F2|A,
